svg/u1f536.svg

<svg viewBox="0 0 128 128" xmlns="http://www.w3.org/2000/svg">
  <path d="M70.04,6.32l52.2,52c2.99,3.13,2.9,8.08-0.2,11.1l-52,52.2c-3.12,3.12-8.18,3.12-11.3,0l-52-52.2 c-3.04-3.04-3.13-7.95-0.2-11.1l52.2-52C61.86,3.2,66.92,3.2,70.04,6.32z" fill="#F77E00"/>
  <path d="M65.14,10.42l48.5,48.4c2.79,2.89,2.71,7.49-0.18,10.28c-0.01,0.01-0.01,0.01-0.02,0.02l-48.4,48.5 c-2.9,2.9-7.59,2.9-10.49,0.01c0,0,0,0-0.01-0.01l-48.3-48.5c-2.9-2.79-2.99-7.39-0.21-10.29c0,0,0,0,0.01-0.01l48.6-48.4 C57.54,7.52,62.23,7.52,65.14,10.42C65.14,10.42,65.14,10.42,65.14,10.42z" fill="#FF9800"/>
  <path d="M53.34,17.62c-1.6,1.1-33.1,32.3-33.1,32.3s-2.6,2.3-0.8,4.7c1.7,2.2,4.3,1.1,5.6-0.1 s29.7-29,30.9-30.4c1.19-1.59,1.42-3.69,0.6-5.5C55.74,17.02,54.44,16.82,53.34,17.62z" fill="#FFBD52"/>
  <circle cx="15.94" cy="60.43" r="3.3" fill="#FFBD52"/>
</svg>

<svg viewBox="0 0 128 128" xmlns="http://www.w3.org/2000/svg">
  <defs/>
  <path d="M70.04,6.32 L122.24,58.32 C125.23,61.45 125.14,66.4 122.04,69.42 L70.04,121.62 C66.92,124.74 61.86,124.74 58.74,121.62 L6.74,69.42 C3.7,66.38 3.61,61.47 6.54,58.32 L58.74,6.32 C61.86,3.2 66.92,3.2 70.04,6.32 Z" fill="#F77E00"/>
  <path d="M65.14,10.42 L113.64,58.82 C116.43,61.71 116.35,66.31 113.46,69.1 C113.45,69.11 113.45,69.11 113.44,69.12 L65.04,117.62 C62.14,120.52 57.45,120.52 54.55,117.63 C54.55,117.63 54.55,117.63 54.54,117.62 L6.24,69.12 C3.34,66.33 3.25,61.73 6.03,58.83 C6.03,58.83 6.03,58.83 6.04,58.82 L54.64,10.42 C57.54,7.52 62.23,7.52 65.14,10.42 C65.14,10.42 65.14,10.42 65.14,10.42 Z" fill="#FF9800"/>
  <path d="M53.34,17.62 C51.74,18.72 20.24,49.92 20.24,49.92 C20.24,49.92 17.64,52.22 19.44,54.62 C21.14,56.82 23.74,55.72 25.04,54.52 C26.34,53.32 54.74,25.52 55.94,24.12 C57.13,22.53 57.36,20.43 56.54,18.62 C55.74,17.02 54.44,16.82 53.34,17.62 Z" fill="#FFBD52"/>
  <path d="M19.24,60.43 A3.3 3.3 0 1 1 12.64,60.43 A3.3 3.3 0 1 1 19.24,60.43 Z" fill="#FFBD52"/>
</svg>
